public/assets/icon.svg

<?xml version="1.0" encoding="UTF-8" standalone="no"?>

<svg
  width="40"
  height="40"
  viewBox="0 0 10.583333 10.583333"
  version="1.1"
  xml:space="preserve"
  xmlns:xlink="http://www.w3.org/1999/xlink"
  xmlns="http://www.w3.org/2000/svg">
  <defs>
    <linearGradient
      id="linearGradient7">
      <stop
        style="stop-color:#10b981;stop-opacity:1;"
        offset="0"
        id="stop7" />
      <stop
        style="stop-color:#056996;stop-opacity:1;"
        offset="1"
        id="stop8" />
    </linearGradient>
    <linearGradient
      xlink:href="#linearGradient7"
      id="linearGradient8"
      x1="3.7041664"
      y1="3.7041664"
      x2="10.054166"
      y2="9.260416"
      gradientUnits="userSpaceOnUse"
      gradientTransform="translate(-1.0588509,-0.79426741)" />
    </defs>
    <g>
    <path
      style="color:#000000;fill:url(#linearGradient8);fill-opacity:1;stroke-linecap:round;-inkscape-stroke:none"
      d="m 5.0270825,1.8520827 c -0.352777,0 -0.6762109,0.1682316 -0.9162231,0.4082438 -0.2400123,0.2400123 -0.4082438,0.5613791 -0.4082438,0.9141561 10e-8,0.352777 0.1682315,0.6741438 0.4082438,0.9141561 0.2400122,0.2400122 0.5634462,0.4082438 0.9162231,0.4082438 0.5144666,1e-7 0.8444325,-0.3377119 1.1348145,-0.5958293 C 6.452279,3.6429359 6.7012276,3.4380324 7.1421989,3.4380324 A 0.26458335,0.26458335 0 0 0 7.4078158,3.1744826 0.26458335,0.26458335 0 0 0 7.1421989,2.9109328 c -0.6173599,0 -1.0267724,0.324781 -1.3317017,0.5958293 C 5.505568,3.7778104 5.3063644,3.9671992 5.0270825,3.9671991 4.850694,3.9671991 4.6428921,3.8723971 4.4860303,3.7155348 4.3291683,3.558673 4.2322991,3.3508712 4.232299,3.1744826 c 0,-0.1763884 0.096869,-0.3841903 0.2537313,-0.5410522 0.1568618,-0.156862 0.3646637,-0.2516643 0.5410522,-0.2516643 0.3527771,0 0.5565552,0.3824055 0.5565552,0.3824056 A 0.26458335,0.26458335 0 0 0 5.9391716,2.8814772 0.26458335,0.26458335 0 0 0 6.0564771,2.5259434 c 0,0 -0.3238404,-0.6738607 -1.0293946,-0.6738607 z m -2.1171834,2.38125 c -0.5144666,0 -1.0365628,0.1696694 -1.4433228,0.5312337 -0.4067599,0.3615645 -0.67386061,0.9244928 -0.67386061,1.5859497 0,0.5144666 0.1649772,1.0154607 0.47645671,1.4159343 0.3114794,0.4004736 0.8039142,0.6991821 1.3771769,0.6991821 0.6173598,0 1.0625853,-0.1609645 1.3513387,-0.3534668 C 4.2864415,7.9196634 4.4410718,7.6450108 4.4410718,7.6450108 A 0.52916664,0.52916664 0 0 0 4.2049105,6.9344598 0.52916664,0.52916664 0 0 0 3.4959098,7.1706211 c 0,0 0.022337,-0.00955 -0.085783,0.062528 -0.1081207,0.072081 -0.3228064,0.1736328 -0.7637777,0.1736328 -0.2204857,0 -0.391579,-0.096101 -0.5431193,-0.2909383 -0.151541,-0.1948375 -0.252181,-0.4860461 -0.252181,-0.765328 0,-0.3968742 0.1302924,-0.6297662 0.3188436,-0.7973673 C 2.3584439,5.3855477 2.6306173,5.291666 2.9098991,5.291666 c 0.4497908,0 0.9478284,0.3011512 1.3280843,0.6521566 0.3802559,0.3510056 0.6133993,0.6991821 0.6133993,0.6991821 0,0 0.2955083,0.4460918 0.7751464,0.8888347 0.4796382,0.4427428 1.1717133,0.9337931 2.0448365,0.9337931 0.5144665,0 1.0370799,-0.168119 1.4438395,-0.5296834 0.40676,-0.3615646 0.673344,-0.9239762 0.673344,-1.585433 0,-0.5144664 -0.16291,-1.0175277 -0.47439,-1.4180013 -0.311479,-0.4004736 -0.8033973,-0.699182 -1.3766599,-0.6991821 -0.6173599,0 -1.063102,0.1609645 -1.3518555,0.3534668 C 6.2968903,4.7793018 6.1401929,5.0555047 6.1401929,5.0555047 a 0.52916664,0.52916664 0 0 0 0.236678,0.7090007 0.52916664,0.52916664 0 0 0 0.710551,-0.2366781 c 0,0 -0.023888,0.01162 0.084233,-0.060461 0.1081207,-0.072081 0.3248733,-0.1756999 0.7658447,-0.1756999 0.2204856,0 0.3889951,0.096101 0.5405355,0.2909383 0.1515402,0.1948377 0.252181,0.48863 0.252181,0.7679118 -4e-7,0.3968746 -0.1297757,0.6271824 -0.3183269,0.7947836 C 8.2233381,7.3129009 7.9506473,7.4067824 7.6713656,7.4067824 7.2215749,7.4067823 6.7256042,7.1056314 6.3453483,6.7546258 5.9650923,6.4036204 5.7319491,6.0554437 5.7319491,6.0554437 c 0,0 -0.2975755,-0.4460918 -0.7772136,-0.8888346 C 4.4750974,4.7238662 3.7830223,4.2333327 2.9098991,4.2333327 Z" />
  </g>
</svg>

<!-- Created with Inkscape (http://www.inkscape.org/) -->

<svg width="40" height="40" viewBox="0 0 10.583333 10.583333" version="1.1" xml:space="preserve"
  xmlns:xlink="http://www.w3.org/1999/xlink"
  xmlns="http://www.w3.org/2000/svg">
  <defs>
    <linearGradient id="linearGradient7">
      <stop style="stop-color:#10b981;stop-opacity:1;" offset="0" />
      <stop style="stop-color:#056996;stop-opacity:1;" offset="1" />
    </linearGradient>
    <linearGradient xlink:href="#linearGradient7" id="linearGradient8" x1="3.7041664" y1="3.7041664" x2="10.054166" y2="9.260416" gradientUnits="userSpaceOnUse" gradientTransform="translate(-1.0588509,-0.79426741)" />
  </defs>
  <g>
    <path style="color:#000000;fill:url(#linearGradient8);fill-opacity:1;stroke-linecap:round;-inkscape-stroke:none" d="M 5.2916665 1.0583333 L 4.8250283 2.0034952 L 3.7816812 2.1554239 L 4.5366738 2.8912963 L 4.3583902 3.9299926 L 5.2916665 3.4395832 L 6.2249428 3.9299926 L 6.0466592 2.8912963 L 6.8016518 2.1554239 L 5.7583047 2.0034952 L 5.2916665 1.0583333 z M 2.9098998 4.2333332 C 2.3954342 4.2333332 1.8733363 4.4030034 1.4665771 4.7645669 C 1.059818 5.1261306 0.79271645 5.6890609 0.79271645 6.3505166 C 0.79271645 6.864982 0.95769429 7.365978 1.2691731 7.7664508 C 1.5806519 8.1669236 2.0730885 8.4656329 2.64635 8.4656329 C 3.2637086 8.4656329 3.7089359 8.304668 3.9976887 8.1121661 C 4.2864416 7.9196642 4.4410725 7.6450112 4.4410725 7.6450112 A 0.52916664 0.52916664 0 0 0 4.2049112 6.9344602 A 0.52916664 0.52916664 0 0 0 3.4959105 7.1706215 C 3.4959105 7.1706215 3.5182475 7.1610722 3.4101277 7.23315 C 3.3020072 7.3052308 3.0873205 7.4067828 2.64635 7.4067828 C 2.4258647 7.4067828 2.2547708 7.3106814 2.1032307 7.1158445 C 1.9516901 6.9210074 1.8510497 6.6297979 1.8510497 6.3505166 C 1.8510497 5.9536432 1.9813425 5.7207501 2.1698933 5.5531492 C 2.3584444 5.385549 2.6306186 5.2916665 2.9098998 5.2916665 C 3.3596898 5.2916665 3.857729 5.5928183 4.2379841 5.9438231 C 4.6182392 6.2948279 4.8513833 6.6430052 4.8513833 6.6430052 C 4.8513833 6.6430052 5.1468927 7.0890977 5.6265298 7.5318398 C 6.106167 7.9745816 6.7982447 8.4656329 7.6713661 8.4656329 C 8.1858316 8.4656329 8.7084468 8.2975131 9.1152056 7.9359495 C 9.5219648 7.5743855 9.7885495 7.011972 9.7885495 6.3505166 C 9.7885495 5.8360512 9.6256393 5.3329881 9.3141599 4.9325153 C 9.0026815 4.5320425 8.5107613 4.2333333 7.9374997 4.2333332 C 7.3201412 4.2333332 6.8743972 4.3942981 6.5856443 4.5868 C 6.2968915 4.7793019 6.1401935 5.0555052 6.1401935 5.0555052 A 0.52916664 0.52916664 0 0 0 6.3768715 5.7645058 A 0.52916664 0.52916664 0 0 0 7.0874225 5.5278278 C 7.0874225 5.5278278 7.0635344 5.5394472 7.171655 5.4673664 C 7.2797755 5.3952854 7.4965293 5.2916665 7.9374997 5.2916665 C 8.1579849 5.2916665 8.3264952 5.3877679 8.4780352 5.5826048 C 8.6295752 5.7774421 8.7302162 6.0712352 8.7302162 6.3505166 C 8.7302158 6.7473904 8.6004402 6.9776991 8.4118894 7.1453001 C 8.2233387 7.3129005 7.9506474 7.4067828 7.6713661 7.4067828 C 7.2215764 7.4067827 6.725604 7.1056311 6.3453489 6.7546263 C 5.9650937 6.4036215 5.7319497 6.0554441 5.7319497 6.0554441 C 5.7319497 6.0554441 5.4343733 5.6093515 4.9547362 5.1666095 C 4.4750991 4.7238676 3.7830212 4.2333332 2.9098998 4.2333332 z " />
  </g>
</svg>
